X: 3
T: Poll Ha'Penny
R: hornpipe
M: 4/4
L: 1/8
K: Dmaj
|: d>B G>B A2 A2 {ABd} | e>c A>F G2 G2 {ABd} | e>d c>A d>c A>G | A2 A>B A4 {ABd} |f3 g e3 c | d2 A2 {ABd} e>f g>e | a>g e>d c>A d>c | A2 A>B A4 :||: g2 g>f g>e d>B | (3Bcd e>f g>e d>f | e2 a2 a3 g | e2 a2 a3 g |f3 g e3 c | d2 A2 {ABd} e>f g>e | a>g e>d c>A d>c | A2 A>B A4 :|


Tune 841	Setting 21049

